assets/images/svg/svg-discord.svg

<svg width="18" height="18" viewBox="0 0 18 18" fill="none" xmlns="http://www.w3.org/2000/svg">
<g clip-path="url(#clip0_1620_22154)">
<path d="M6.36058 8.04395C5.49433 8.04395 4.78979 8.83145 4.78979 9.79895C4.78979 10.7664 5.49292 11.5525 6.36058 11.5525C7.22823 11.5525 7.92995 10.7664 7.92995 9.79895C7.92995 8.83145 7.22542 8.04395 6.36058 8.04395ZM6.36058 10.9971C5.79808 10.9971 5.35229 10.4627 5.35229 9.80598C5.35229 9.14926 5.8037 8.61348 6.36058 8.61348C6.91745 8.61348 7.36745 9.14785 7.36745 9.80598C7.36745 10.4641 6.91604 10.99 6.36058 10.99V10.9971Z" fill="white"/>
<path d="M17.1323 8.37845C16.7475 6.87228 16.2044 5.41102 15.5123 4.01908C15.4887 3.97513 15.4543 3.93788 15.4124 3.91079C14.7327 3.50633 14.0155 3.16865 13.2707 2.90251C11.8898 2.40048 11.2373 2.39064 11.2105 2.39064C11.1423 2.38997 11.0761 2.41413 11.0244 2.45864C10.9726 2.50314 10.9388 2.56494 10.9293 2.63251L10.8449 3.21892C9.61605 3.09704 8.37815 3.09704 7.14929 3.21892L7.06491 2.63251C7.05536 2.56494 7.02156 2.50314 6.96982 2.45864C6.91807 2.41413 6.85191 2.38997 6.78366 2.39064C6.75694 2.39064 6.10444 2.39064 4.72351 2.8983C3.98049 3.16612 3.26513 3.5052 2.58741 3.91079C2.54552 3.93788 2.51117 3.97513 2.48757 4.01908C1.79533 5.411 1.25231 6.87226 0.867568 8.37845C0.140537 11.3147 -8.7779e-05 12.7842 -8.7779e-05 12.8447C-0.00350842 12.8827 0.000836368 12.921 0.0126823 12.9573C0.0245282 12.9935 0.0436275 13.027 0.0688185 13.0556C0.791713 13.8201 1.66247 14.4296 2.62819 14.8472C3.51731 15.2254 4.45343 15.4818 5.41116 15.6094C5.46492 15.6143 5.51896 15.6037 5.56683 15.5788C5.61471 15.5538 5.6544 15.5156 5.68116 15.4688L6.44054 14.168C7.28597 14.312 8.14232 14.3821 8.99991 14.3775C9.85758 14.3811 10.7139 14.3101 11.5593 14.1652L12.3187 15.4688C12.3432 15.5113 12.3784 15.5466 12.4209 15.5713C12.4633 15.596 12.5115 15.6091 12.5605 15.6094H12.5887C13.5457 15.4834 14.4813 15.229 15.3702 14.8528C16.3359 14.4353 17.2067 13.8257 17.9296 13.0613C17.9548 13.0326 17.9739 12.9991 17.9857 12.9629C17.9976 12.9266 18.0019 12.8883 17.9985 12.8503C17.9999 12.7842 17.8663 11.3147 17.1323 8.37845ZM15.1551 14.3283C14.37 14.6544 13.5492 14.8866 12.7096 15.0202L12.1358 14.0358C12.794 13.8614 14.1637 13.4086 15.2057 12.4608C15.2334 12.436 15.2559 12.4059 15.272 12.3724C15.2881 12.3388 15.2974 12.3024 15.2995 12.2653C15.3015 12.2281 15.2962 12.1909 15.2838 12.1558C15.2715 12.1207 15.2523 12.0884 15.2275 12.0607C15.2027 12.033 15.1726 12.0105 15.1391 11.9944C15.1055 11.9783 15.0691 11.969 15.032 11.967C14.9948 11.9649 14.9576 11.9703 14.9225 11.9826C14.8874 11.9949 14.8551 12.0141 14.8274 12.0389C13.5618 13.1963 11.669 13.5633 11.6493 13.5675H11.6409C10.7707 13.736 9.88619 13.8189 8.99991 13.815C8.11391 13.8217 7.22938 13.7416 6.35897 13.576H6.35054C6.33085 13.576 4.44507 13.2047 3.17241 12.0474C3.11647 11.9972 3.04289 11.9713 2.96786 11.9754C2.89283 11.9795 2.8225 12.0132 2.77233 12.0692C2.72217 12.1251 2.69629 12.1987 2.70037 12.2737C2.70446 12.3487 2.73819 12.4191 2.79413 12.4692C3.83616 13.417 5.20585 13.8755 5.86398 14.0442L5.29022 15.0286C4.45047 14.896 3.62953 14.6637 2.84476 14.3367C1.99547 13.9622 1.22484 13.4302 0.573662 12.7688C0.620068 12.3595 0.809912 10.9308 1.41741 8.51626C1.78717 7.07858 2.30168 5.68207 2.95304 4.34814C3.58121 3.98552 4.23998 3.67872 4.92179 3.43126C5.44862 3.22883 5.99405 3.07858 6.55023 2.98267L6.59944 3.31876C6.03694 3.45939 4.65179 3.86158 3.55491 4.65892C3.52509 4.68071 3.49985 4.70816 3.48063 4.73971C3.46142 4.77126 3.4486 4.80628 3.44292 4.84277C3.43145 4.91649 3.44973 4.99173 3.49374 5.05197C3.53775 5.1122 3.60388 5.15248 3.67759 5.16396C3.71409 5.16964 3.75135 5.16807 3.78725 5.15935C3.82314 5.15063 3.85696 5.13493 3.88679 5.11314C5.1271 4.21173 6.83991 3.83908 6.96085 3.81236C7.63748 3.73129 8.31845 3.69184 8.99991 3.69423C9.68185 3.69151 10.3633 3.73096 11.0404 3.81236C11.1684 3.83908 12.8685 4.21033 14.1144 5.11314C14.1747 5.15715 14.2499 5.17543 14.3236 5.16396C14.3973 5.15248 14.4635 5.1122 14.5075 5.05197C14.5515 4.99173 14.5698 4.91649 14.5583 4.84277C14.5468 4.76906 14.5066 4.70293 14.4463 4.65892C13.3494 3.86158 11.9699 3.4608 11.4018 3.31876L11.451 2.98267C12.0066 3.07902 12.5515 3.22926 13.078 3.43126C13.7598 3.67872 14.4186 3.98552 15.0468 4.34814C15.702 5.68164 16.2203 7.07816 16.5937 8.51626C17.1969 10.9308 17.3868 12.3595 17.4374 12.7688C16.7822 13.4284 16.0077 13.9576 15.1551 14.3283Z" fill="white"/>
<path d="M11.6394 8.04395C10.7746 8.04395 10.0701 8.83145 10.0701 9.79895C10.0701 10.7664 10.7732 11.5525 11.6394 11.5525C12.5057 11.5525 13.2102 10.7664 13.2102 9.79895C13.2102 8.83145 12.5057 8.04395 11.6394 8.04395ZM11.6394 10.9971C11.0769 10.9971 10.6326 10.4627 10.6326 9.80598C10.6326 9.14926 11.084 8.61348 11.6394 8.61348C12.1949 8.61348 12.6477 9.14785 12.6477 9.80598C12.6477 10.4641 12.1963 10.99 11.6394 10.99V10.9971Z" fill="white"/>
</g>
<defs>
<clipPath id="clip0_1620_22154">
<rect width="18" height="18" fill="white"/>
</clipPath>
</defs>
</svg>

<svg width="18" height="18" fill="none" xmlns="http://www.w3.org/2000/svg">
  <g clip-path="url(#a)" fill="#fff">
    <path d="M6.36 8.044c-.866 0-1.57.787-1.57 1.755 0 .967.703 1.754 1.57 1.754.868 0 1.57-.787 1.57-1.754 0-.968-.705-1.755-1.57-1.755Zm0 2.953c-.562 0-1.008-.534-1.008-1.191s.452-1.193 1.009-1.193c.556 0 1.006.535 1.006 1.193s-.451 1.184-1.006 1.184v.007Z"/>
    <path d="M17.132 8.378a22.052 22.052 0 0 0-1.62-4.359.295.295 0 0 0-.1-.108 12.247 12.247 0 0 0-2.141-1.008c-1.381-.503-2.034-.512-2.06-.512a.281.281 0 0 0-.282.242l-.084.586a18.722 18.722 0 0 0-3.696 0l-.084-.586a.281.281 0 0 0-.281-.242c-.027 0-.68 0-2.06.507-.744.268-1.459.607-2.137 1.013a.295.295 0 0 0-.1.108 22.039 22.039 0 0 0-1.62 4.36C.142 11.314 0 12.783 0 12.844a.282.282 0 0 0 .069.21 7.763 7.763 0 0 0 2.56 1.792c.888.378 1.824.635 2.782.762a.282.282 0 0 0 .27-.14l.76-1.301a14.77 14.77 0 0 0 2.559.21c.858.003 1.714-.068 2.56-.213l.759 1.304a.28.28 0 0 0 .241.14h.029a10.73 10.73 0 0 0 2.781-.756 7.763 7.763 0 0 0 2.56-1.792.281.281 0 0 0 .069-.21c0-.067-.133-1.536-.867-4.473Zm-1.977 5.95a10.8 10.8 0 0 1-2.445.692l-.574-.984c.658-.175 2.028-.627 3.07-1.575a.283.283 0 0 0-.379-.422c-1.265 1.157-3.158 1.524-3.178 1.529h-.008c-.87.168-1.755.25-2.641.247a13.58 13.58 0 0 1-2.641-.239h-.008c-.02 0-1.906-.371-3.179-1.529a.283.283 0 1 0-.378.422c1.042.948 2.412 1.407 3.07 1.575l-.574.985c-.84-.133-1.66-.365-2.445-.692a7.347 7.347 0 0 1-2.271-1.568c.046-.41.236-1.838.843-4.253.37-1.437.885-2.834 1.536-4.168a12.4 12.4 0 0 1 1.969-.917 8.628 8.628 0 0 1 1.628-.448l.05.336c-.563.14-1.948.543-3.045 1.34a.281.281 0 0 0 .332.454c1.24-.901 2.953-1.274 3.074-1.3A16.65 16.65 0 0 1 9 3.693c.682-.002 1.363.037 2.04.118.128.027 1.829.398 3.074 1.301a.281.281 0 0 0 .332-.454c-1.097-.797-2.476-1.198-3.044-1.34l.049-.336c.556.096 1.1.246 1.627.448.682.248 1.34.555 1.969.917a21.976 21.976 0 0 1 1.547 4.168c.603 2.415.793 3.844.843 4.253a7.345 7.345 0 0 1-2.282 1.56Z"/>
    <path d="M11.64 8.044c-.865 0-1.57.787-1.57 1.755 0 .967.703 1.754 1.57 1.754.866 0 1.57-.787 1.57-1.754 0-.968-.704-1.755-1.57-1.755Zm0 2.953c-.563 0-1.007-.534-1.007-1.191s.451-1.193 1.006-1.193c.556 0 1.009.535 1.009 1.193s-.452 1.184-1.009 1.184v.007Z"/>
  </g>
  <defs>
    <clipPath id="a">
      <path fill="#fff" d="M0 0h18v18H0z"/>
    </clipPath>
  </defs>
</svg>
